X:1
T: Brochan Lom
C:
R:Strathspey
Q: 128
K:D
M:4/4
L:1/16
|:a3g|fd3 d4 Ad3 d4|f3d a3f d4 e3f|ge3 e4 Be3 e4|c3A e3c A4 a3g|
fd3 d4 Ad3 d4|f3d a3f d4 ((3f2g2a2) |b3g a3f g3e f3d|e3c ((3A2B2c2) d4:|
|:a3g|fa3 a4 fa3 a4|f3d a3f d4 e3f|gb3 b4 gb3 b4|g3e a3g e4 f3g|
fa3 a4 fa3 a4|f3d a3f d4 ((3f2g2a2) |b3g a3f g3e f3d|e3c ((3A2B2c2) d4:|
